Sources/FrostedUI/Resources/Icons.xcassets/home12.imageset/home-12.svg

<svg width="12" height="12" viewBox="0 0 12 12" fill="none" xmlns="http://www.w3.org/2000/svg" data-fui-icon="true">
  <path
    d="M6 0C6.47442 0 6.93542 0.159199 7.30859 0.452148L11.3232 3.60352C11.7507 3.93906 12 4.4527 12 4.99609V10.7402C11.9999 11.4359 11.4359 11.9999 10.7402 12H8.36914C7.88922 11.9998 7.50022 11.6108 7.5 11.1309V8.75C7.5 7.92157 6.82843 7.25 6 7.25C5.17157 7.25 4.5 7.92157 4.5 8.75V11.1309C4.49978 11.6108 4.11078 11.9998 3.63086 12H1.25977C0.564066 11.9999 0.000115939 11.4359 0 10.7402V4.99609C0 4.4527 0.249349 3.93906 0.676758 3.60352L4.69141 0.452148C5.06458 0.159199 5.52558 0 6 0ZM6 1.5C5.86156 1.5 5.7271 1.54641 5.61816 1.63184L1.60352 4.7832C1.53831 4.83439 1.5 4.9132 1.5 4.99609V10.5H3V8.75C3 7.09315 4.34315 5.75 6 5.75C7.65685 5.75 9 7.09315 9 8.75V10.5H10.5V4.99609C10.5 4.9132 10.4617 4.83439 10.3965 4.7832L6.38184 1.63184C6.2729 1.54641 6.13844 1.5 6 1.5Z"
    fill="currentColor"
  />
</svg>

<svg xmlns="http://www.w3.org/2000/svg" width="12" height="12" fill="none" data-fui-icon="true" viewBox="0 0 12 12"><path fill="currentColor" d="M6 0c.474 0 .935.16 1.309.452l4.014 3.152c.428.335.677.849.677 1.392v5.744A1.26 1.26 0 0 1 10.74 12H8.37a.87.87 0 0 1-.87-.87V8.75a1.5 1.5 0 1 0-3 0v2.38a.87.87 0 0 1-.87.87H1.26A1.26 1.26 0 0 1 0 10.74V4.996c0-.543.25-1.057.677-1.392L4.69.452A2.12 2.12 0 0 1 6 0m0 1.5a.62.62 0 0 0-.382.132L1.604 4.783a.27.27 0 0 0-.104.213V10.5H3V8.75a3 3 0 0 1 6 0v1.75h1.5V4.996a.27.27 0 0 0-.104-.213L6.382 1.632A.62.62 0 0 0 6 1.5"/></svg>
